packages/foundations/assets/icons/functional/images/devices/telephone_28.svg

<svg width="28" height="28" viewBox="0 0 28 28" fill="none" xmlns="http://www.w3.org/2000/svg">
<g clip-path="url(#clip0_185_748)">
<path fill-rule="evenodd" clip-rule="evenodd" d="M6.8852 2.1875C7.73185 2.1875 8.60589 2.5149 9.26135 3.1696L12.0199 5.84314C12.6753 6.49784 13.002 7.36309 13.002 8.20982C13.002 9.08381 12.6739 9.9578 12.0176 10.586L10.7051 11.8696C11.7989 13.2899 14.834 16.3488 16.1738 17.3047L17.623 15.8572C18.1699 15.311 18.9629 15.0652 19.7558 15.0652C20.6582 15.0652 21.5518 15.364 22.2073 16.0187L24.8566 18.7195C25.512 19.3743 25.8125 20.1927 25.8125 21.0657C25.8125 21.8568 25.5394 22.7025 24.9386 23.3573C23.3545 25.2123 22.098 25.8125 20.2955 25.8125C17.1546 25.8125 13.085 23.6028 8.70896 19.2712C4.37246 14.9003 2.1875 10.8355 2.1875 7.72545C2.1875 5.76125 2.89765 4.53364 4.75484 2.95137C5.383 2.433 6.12045 2.1875 6.8852 2.1875ZM6.9125 3.9062C6.47552 3.9062 6.03855 4.0699 5.73807 4.34267C4.26326 5.65217 3.8535 6.38868 3.8535 7.72545C3.8535 10.3171 5.87466 14 9.91209 18.0968C13.9591 22.1296 17.6735 24.1211 20.2955 24.1211C21.5791 24.1211 22.3712 23.7392 23.6821 22.2388C23.9826 21.8568 24.1191 21.4476 24.1191 21.0657C24.1191 20.6292 23.9553 20.22 23.6548 19.8926L21.0137 17.2228C20.7129 16.8951 20.2754 16.7312 19.8652 16.7312C19.4551 16.7312 19.0723 16.8677 18.7715 17.1409L16.8574 19.0254C16.6933 19.1893 16.4746 19.2712 16.2558 19.2712C16.0918 19.2712 15.9277 19.2167 15.791 19.1347C14.4239 18.2061 13.1933 17.1682 12.0176 16.0211C10.8692 14.874 9.80271 13.5903 8.90041 12.252C8.81834 12.1155 8.76365 11.9515 8.76365 11.7604C8.76365 11.5419 8.84573 11.3234 9.00979 11.1595L10.8145 9.41155C11.1699 9.08381 11.334 8.64681 11.334 8.20982C11.334 7.80009 11.1699 7.36309 10.8145 7.03535L8.11423 4.39721C7.78645 4.0699 7.34947 3.9062 6.9125 3.9062Z" fill="#1A1C1F"/>
</g>
<defs>
<clipPath id="clip0_185_748">
<rect width="28" height="28" fill="white"/>
</clipPath>
</defs>
</svg>

<svg xmlns="http://www.w3.org/2000/svg" width="28" height="28" fill="none"><g clip-path="url(#a)"><path fill="#1A1C1F" fill-rule="evenodd" d="M6.885 2.188c.847 0 1.72.327 2.376.982l2.759 2.673a3.35 3.35 0 0 1 .982 2.367c0 .874-.328 1.748-.984 2.376l-1.313 1.284c1.094 1.42 4.129 4.479 5.469 5.435l1.449-1.448c.547-.546 1.34-.792 2.133-.792.902 0 1.796.299 2.451.954l2.65 2.7c.655.655.956 1.474.956 2.347a3.4 3.4 0 0 1-.874 2.291c-1.584 1.855-2.841 2.456-4.643 2.456-3.141 0-7.211-2.21-11.587-6.542-4.337-4.37-6.521-8.436-6.521-11.546 0-1.964.71-3.191 2.567-4.774a3.3 3.3 0 0 1 2.13-.764m.027 1.718c-.436 0-.873.164-1.174.437-1.475 1.31-1.885 2.046-1.885 3.382 0 2.592 2.022 6.275 6.06 10.372 4.046 4.033 7.76 6.024 10.383 6.024 1.283 0 2.075-.382 3.386-1.882.3-.382.437-.791.437-1.173a1.72 1.72 0 0 0-.464-1.173l-2.641-2.67a1.58 1.58 0 0 0-1.149-.492 1.6 1.6 0 0 0-1.093.41l-1.915 1.884a.85.85 0 0 1-.601.246.9.9 0 0 1-.465-.136c-1.367-.929-2.598-1.967-3.773-3.114A25.7 25.7 0 0 1 8.9 12.252a.94.94 0 0 1-.136-.492c0-.218.082-.437.246-.6l1.805-1.748c.355-.328.519-.765.519-1.202a1.6 1.6 0 0 0-.52-1.175l-2.7-2.638a1.7 1.7 0 0 0-1.202-.49" clip-rule="evenodd"/></g><defs><clipPath id="a"><path fill="#fff" d="M0 0h28v28H0z"/></clipPath></defs></svg>
